src/22x22/places/folder-gruvbox-original-red-applications.svg

<?xml version="1.0" encoding="UTF-8"?>
<svg width="22" height="22" version="1" xmlns="http://www.w3.org/2000/svg">
 <rect x="1" y="8.5" width="20" height="12" rx="1" ry="1" opacity=".2"/>
 <path d="m1 16c0 0.554 0.446 1 1 1h18c0.554 0 1-0.446 1-1v-11c0-0.554-0.446-1-1-1h-9c-1.5 0-2-2-3.5-2h-5.5c-0.554 0-1 0.446-1 1" fill="#9d0006"/>
 <path d="m2 2c-0.554 0-1 0.446-1 1v0.5c0-0.554 0.446-1 1-1h5.5c1.5 0 2 2 3.5 2h9c0.554 0 1 0.446 1 1v-0.5c0-0.554-0.446-1-1-1h-9c-1.5 0-2-2-3.5-2z" fill="#efd2b3" opacity=".1"/>
 <rect x="1" y="7.5" width="20" height="12" rx="1" ry="1" opacity=".2"/>
 <rect x="3" y="6" width="16" height="8" rx="1" ry="1" fill="#efd2b3"/>
 <rect x="1" y="8" width="20" height="12" rx="1" ry="1" fill="#fb4934"/>
 <path d="m8 10c-0.554 0-1 0.446-1 1v1c0 0.554 0.446 1 1 1h1c0.554 0 1-0.446 1-1v-1c0-0.554-0.446-1-1-1zm5 0c-0.554 0-1 0.446-1 1v1c0 0.554 0.446 1 1 1h1c0.554 0 1-0.446 1-1v-1c0-0.554-0.446-1-1-1zm-5 5c-0.554 0-1 0.446-1 1v1c0 0.554 0.446 1 1 1h1c0.554 0 1-0.446 1-1v-1c0-0.554-0.446-1-1-1zm5.5 0c-0.277 0-0.5 0.223-0.5 0.5v0.5h-0.5a0.50005 0.50005 0 0 0-0.35352 0.85352l1 1a0.50005 0.50005 0 0 0 0.70703 0l1-1a0.50005 0.50005 0 0 0-0.35352-0.85352h-0.5v-0.5c0-0.277-0.223-0.5-0.5-0.5z" fill="#442e2d"/>
</svg>

<svg xmlns="http://www.w3.org/2000/svg" width="22" height="22" version="1">
 <rect style="opacity:0.2" width="20" height="12" x="1" y="8.5" rx="1" ry="1"/>
 <path style="fill:#9d0006" d="M 1,16 C 1,16.554 1.446,17 2,17 H 20 C 20.554,17 21,16.554 21,16 V 5 C 21,4.446 20.554,4 20,4 H 11 C 9.5,4 9,2 7.5,2 H 2 C 1.446,2 1,2.446 1,3"/>
 <path style="opacity:0.1;fill:#efd2b3" d="M 2,2 C 1.446,2 1,2.446 1,3 V 3.5 C 1,2.946 1.446,2.5 2,2.5 H 7.5 C 9,2.5 9.5,4.5 11,4.5 H 20 C 20.554,4.5 21,4.946 21,5.5 V 5 C 21,4.446 20.554,4 20,4 H 11 C 9.5,4 9,2 7.5,2 Z"/>
 <rect style="opacity:0.2" width="20" height="12" x="1" y="7.5" rx="1" ry="1"/>
 <rect style="fill:#efd2b3" width="16" height="8" x="3" y="6" rx="1" ry="1"/>
 <rect style="fill:#fb4934" width="20" height="12" x="1" y="8" rx="1" ry="1"/>
 <path style="fill:#442e2d" d="m 8,10 c -0.554,0 -1,0.446 -1,1 v 1 c 0,0.554 0.446,1 1,1 h 1 c 0.554,0 1,-0.446 1,-1 V 11 C 10,10.446 9.554,10 9,10 Z m 5,0 c -0.554,0 -1,0.446 -1,1 v 1 c 0,0.554 0.446,1 1,1 h 1 c 0.554,0 1,-0.446 1,-1 v -1 c 0,-0.554 -0.446,-1 -1,-1 z m -5,5 c -0.554,0 -1,0.446 -1,1 v 1 c 0,0.554 0.446,1 1,1 h 1 c 0.554,0 1,-0.446 1,-1 V 16 C 10,15.446 9.554,15 9,15 Z m 5.5,0 C 13.223,15 13,15.223 13,15.5 V 16 h -0.5 a 0.50005,0.50005 0 0 0 -0.353516,0.853516 l 1,1 a 0.50005,0.50005 0 0 0 0.707032,0 l 1,-1 A 0.50005,0.50005 0 0 0 14.5,16 H 14 V 15.5 C 14,15.223 13.777,15 13.5,15 Z"/>
</svg>
